Adwaita++/actions/symbolic/format-text-larger-symbolic.svg

<svg height="16" width="16" xmlns="http://www.w3.org/2000/svg">
  <path d="m7 1-5 14h2.5l1.06-3h4.88l1.06 3h2.5l-5-14zm1 4 1.75 5h-3.5z" fill="#474747"/>
</svg>

<svg xmlns="http://www.w3.org/2000/svg" width="16" height="16" version="1.1">
 <path style="fill:#474747" d="M 7,1 2,15 H 4.5 L 5.56,12 H 10.44 L 11.5,15 H 14 L 9,1 Z M 8,5 9.75,10 H 6.25 Z"/>
</svg>
